X:1
T:March from Scipione
T:Handel Arranged for Guitar
%%score ( 1 2 3 )
L:1/8
Q:1/4=110
M:4/4
K:G
V:1 treble-8 nm="Guitar" snm="Guit."
V:2 treble-8 
V:3 treble-8 
V:1
|:"^BPM= Around 110" GA | [GB]4 [Fd]4 | [EBg]6 [F,DA]2 | G,2 A,2 B,2 C2 | [DFA]6 [B,Fd]2 | %5
 E,2 E2 D2 C2 | B,C D2 A,B, C2 | [B,D]2 [CE]2 [DG]2 [DF]2 | [G,B,G]6 :: [G,db]2 | F,2 E,2 D2 C2 | %11
 B,2 G2 A,2 F2 | G,4 F,2 E,2 | [DF]2 [EG]2 [FA]2 [DF]2 | G,2 F,2 G,2 E,2 | A,2 B,2 ^C2 D2 | %16
 E2 G2 A2 A,2 | [DFd]6 [DFc]2 | [GB][FA][GB][Ac] [GB]2 [FA]2 | [EGc]4 [DGB]4 | e2 d2 c2 B2 | %21
 [F,DA]6 [B,Fd]2 | E,2 E2 D2 C2 | B,C D2 A,B, C2 | [B,D]2 [CE]2 [DG]2 [DF]2 | [G,B,G]6 :| %26
V:2
|: x2 | x8 | x8 | Bcde d2 cB | x8 | ef g2 f2 e2 | d4 c4 | BAGc B2 A>G | x6 :: x2 | a2 g2 fg a2 | %11
 d4 c4 | B2 cB A2 G2 | d6 a2 | edef e2 e2 | e6 f2 | g2 fe f2 ed | x8 | x8 | x8 | G8 | x8 | %22
 ef g2 f2 e2 | d4 c4 | BAGc B2 A>G | x6 :| %26
V:3
|: x2 | x8 | x8 | x8 | x8 | x8 | x8 | x8 | x6 :: x2 | x8 | x8 | x8 | x8 | x8 | x8 | x8 | x8 | x8 | %19
 x8 | C2 B,2 A,2 G,2 | x8 | x8 | x8 | x8 | x6 :| %26

